Faba/24x24/actions/process-stop.svg

<?xml version="1.0" encoding="UTF-8" standalone="no"?>
<!-- Created with Inkscape (http://www.inkscape.org/) -->

<svg
   xmlns:dc="http://purl.org/dc/elements/1.1/"
   xmlns:cc="http://creativecommons.org/ns#"
   xmlns:rdf="http://www.w3.org/1999/02/22-rdf-syntax-ns#"
   xmlns:svg="http://www.w3.org/2000/svg"
   xmlns="http://www.w3.org/2000/svg"
   xmlns:sodipodi="http://sodipodi.sourceforge.net/DTD/sodipodi-0.dtd"
   xmlns:inkscape="http://www.inkscape.org/namespaces/inkscape"
   width="24"
   height="24"
   id="svg3495"
   version="1.1"
   inkscape:version="0.48.4 r9939"
   sodipodi:docname="process-stop.svg">
  <defs
     id="defs3497">
    <clipPath
       clipPathUnits="userSpaceOnUse"
       id="clipPath3669">
      <path
         inkscape:connector-curvature="0"
         d="M 0,96 96,96 96,0 0,0 0,96 z"
         id="path3671" />
    </clipPath>
  </defs>
  <sodipodi:namedview
     id="base"
     pagecolor="#ffffff"
     bordercolor="#666666"
     borderopacity="1.0"
     inkscape:pageopacity="0.0"
     inkscape:pageshadow="2"
     inkscape:zoom="1"
     inkscape:cx="-8.7327798"
     inkscape:cy="20.803629"
     inkscape:current-layer="layer1"
     showgrid="false"
     inkscape:grid-bbox="true"
     inkscape:document-units="px"
     inkscape:window-width="1364"
     inkscape:window-height="701"
     inkscape:window-x="0"
     inkscape:window-y="27"
     inkscape:window-maximized="1"
     inkscape:snap-bbox="true"
     inkscape:bbox-paths="true"
     inkscape:bbox-nodes="true"
     inkscape:snap-bbox-edge-midpoints="false"
     showguides="true"
     inkscape:guide-bbox="true">
    <inkscape:grid
       type="xygrid"
       id="grid3512"
       empspacing="4"
       visible="true"
       enabled="true"
       snapvisiblegridlinesonly="true"
       dotted="false" />
  </sodipodi:namedview>
  <metadata
     id="metadata3500">
    <rdf:RDF>
      <cc:Work
         rdf:about="">
        <dc:format>image/svg+xml</dc:format>
        <dc:type
           rdf:resource="http://purl.org/dc/dcmitype/StillImage" />
        <dc:title />
      </cc:Work>
    </rdf:RDF>
  </metadata>
  <g
     id="layer1"
     inkscape:label="Layer 1"
     inkscape:groupmode="layer"
     transform="translate(1,-25)">
    <g
       id="g4789"
       transform="matrix(0.89370497,0,0,-0.89370497,19,30.234207)">
      <path
         d="m -2.2377594,-2.2377589 -1.381,1.38099997 L -8.951,-6.189 l -5.33324,5.33224107 -1.381,-1.38099997 5.33224,-5.3332411 -5.33224,-5.33224 1.381,-1.381 5.33324,5.33224 5.3322406,-5.33224 1.381,1.381 L -7.57,-7.571 z"
         style="fill:#555555;fill-opacity:1;fill-rule:evenodd;stroke:none"
         id="path4791"
         inkscape:connector-curvature="0"
         sodipodi:nodetypes="ccccccccccccc" />
      <path
         sodipodi:nodetypes="ccccccccccccc"
         inkscape:connector-curvature="0"
         id="path2989"
         style="opacity:0.1;fill:#ffffff;fill-opacity:1;fill-rule:evenodd;stroke:none"
         d="m -2.2377594,-1.1187058 -1.381,1.38099993 L -8.951,-5.0699469 l -5.33324,5.33224103 -1.381,-1.38099993 5.33224,-5.3332411 -5.33224,-5.3322401 1.381,-1.381 5.33324,5.3322401 5.3322406,-5.3322401 1.381,1.381 L -7.57,-6.4519469 z" />
    </g>
  </g>
</svg>

<svg xmlns="http://www.w3.org/2000/svg" viewBox="0 0 24 24"><defs><clipPath><path d="m0 96h96v-96h-96v96"/></clipPath></defs><g transform="matrix(.8937 0 0-.8937 20 5.234)" fill-rule="evenodd"><path d="m-2.238-2.238l-1.381 1.381-5.332-5.332-5.333 5.332-1.381-1.381 5.332-5.333-5.332-5.332 1.381-1.381 5.333 5.332 5.332-5.332 1.381 1.381-5.332 5.332z" fill="#555"/><path d="m-2.238-1.119l-1.381 1.381-5.332-5.332-5.333 5.332-1.381-1.381 5.332-5.333-5.332-5.332 1.381-1.381 5.333 5.332 5.332-5.332 1.381 1.381-5.332 5.332z" opacity=".1" fill="#fff"/></g></svg>
